symbols/web/card_travel/materialsymbolsoutlined/card_travel_wght700_48px.svg

<svg xmlns="http://www.w3.org/2000/svg" height="48" width="48"><path d="M7.45 34.25v4.3h33.1v-4.3ZM14.1 10.7V6.3q0-1.9 1.375-3.3T18.8 1.6h10.35q1.95 0 3.325 1.4 1.375 1.4 1.375 3.3v4.4h6.7q1.95 0 3.35 1.4 1.4 1.4 1.4 3.35v23.1q0 1.95-1.4 3.325-1.4 1.375-3.35 1.375H7.45q-1.95 0-3.325-1.375Q2.75 40.5 2.75 38.55v-23.1q0-1.95 1.375-3.35Q5.5 10.7 7.45 10.7Zm-6.65 17h33.1V15.45h-6.7v3.2h-4.7v-3.2H18.8v3.2h-4.7v-3.2H7.45Zm11.35-17h10.35V6.3H18.8ZM7.45 38.55v-23.1 3.2-3.2 3.2-3.2 23.1Z"/></svg>

<svg xmlns="http://www.w3.org/2000/svg" height="48" width="48"><path d="M7.45 34.25V38.55Q7.45 38.55 7.45 38.55Q7.45 38.55 7.45 38.55H40.55Q40.55 38.55 40.55 38.55Q40.55 38.55 40.55 38.55V34.25ZM14.1 10.7V6.3Q14.1 4.4 15.475 3Q16.85 1.6 18.8 1.6H29.15Q31.1 1.6 32.475 3Q33.85 4.4 33.85 6.3V10.7H40.55Q42.5 10.7 43.9 12.1Q45.3 13.5 45.3 15.45V38.55Q45.3 40.5 43.9 41.875Q42.5 43.25 40.55 43.25H7.45Q5.5 43.25 4.125 41.875Q2.75 40.5 2.75 38.55V15.45Q2.75 13.5 4.125 12.1Q5.5 10.7 7.45 10.7ZM7.45 27.7H40.55V15.45Q40.55 15.45 40.55 15.45Q40.55 15.45 40.55 15.45H33.85V18.65H29.15V15.45H18.8V18.65H14.1V15.45H7.45Q7.45 15.45 7.45 15.45Q7.45 15.45 7.45 15.45ZM18.8 10.7H29.15V6.3Q29.15 6.3 29.15 6.3Q29.15 6.3 29.15 6.3H18.8Q18.8 6.3 18.8 6.3Q18.8 6.3 18.8 6.3ZM7.45 38.55V15.45Q7.45 15.45 7.45 15.45Q7.45 15.45 7.45 15.45V18.65V15.45V18.65V15.45Q7.45 15.45 7.45 15.45Q7.45 15.45 7.45 15.45V38.55Q7.45 38.55 7.45 38.55Q7.45 38.55 7.45 38.55Q7.45 38.55 7.45 38.55Q7.45 38.55 7.45 38.55Z"/></svg>
